lib/flags/al-albania.svg

<svg xmlns="http://www.w3.org/2000/svg" fill="none" aria-hidden="true" viewBox="0 0 42 30"><g id="Country=AL - Albania, Size=sm (36x24)" filter="url(#filter0_dd_91_29876)"><g clip-path="url(#clip0_91_29876)"><g id="flag"><mask id="mask0_91_29876" width="36" height="24" x="3" y="2" maskUnits="userSpaceOnUse" style="mask-type:alpha"><rect id="mask" width="36" height="24" x="3" y="2" fill="white"/></mask><g mask="url(#mask0_91_29876)"><g id="contents"><path id="middle" fill="#F50100" fill-rule="evenodd" d="M3 2H39V26H3V2Z" clip-rule="evenodd"/><g id="mark"><path id="Combined Shape" fill="#1A1A1A" fill-rule="evenodd" d="M21.5625 21.247L21.5547 23.6001C21.5547 23.6001 20.324 21.6888 20.4215 21.6888C20.519 21.6888 20.8844 21.0563 21.0347 20.7425C21.1851 20.4287 20.7081 20.2064 20.6282 20.4296C20.5484 20.6527 20.2215 20.968 19.7746 21.2209C19.3276 21.4737 19.2289 20.8399 19.2289 20.6913C19.2289 20.5768 19.4039 20.5822 19.6797 20.5908C19.7622 20.5934 19.8537 20.5962 19.9522 20.5962C20.3801 20.5962 20.4215 19.7529 20.324 19.5371C20.2696 19.4166 20.1439 19.5377 19.9496 19.7248C19.7957 19.873 19.5989 20.0625 19.3604 20.2064C18.8207 20.5321 18.5214 20.1888 18.5214 19.8807C18.5214 19.708 18.6328 19.7116 18.8054 19.7172C18.9405 19.7216 19.1132 19.7273 19.2992 19.6503C19.7228 19.4751 20.0258 18.741 19.9522 18.6761C19.8931 18.6242 19.5484 18.8043 19.1642 19.005C19.0692 19.0547 18.9718 19.1056 18.8757 19.1545C18.391 19.4014 18.1886 18.8185 18.1886 18.6761C18.1886 18.5338 18.6437 18.5144 18.8757 18.5144C19.1077 18.5144 19.9403 18.0634 20.4215 17.4925C20.9027 16.9216 20.7659 16.2437 20.4215 16.0237C20.1824 15.871 20.0189 16.0902 19.8417 16.3277C19.7636 16.4324 19.6829 16.5407 19.5918 16.6222C19.4466 16.7524 19.2572 17.0985 19.082 17.4189C18.8979 17.7553 18.7294 18.0634 18.6437 18.0634C18.4764 18.0634 17.9675 17.5809 17.9675 17.5809L16.1508 18.0634C16.1508 18.0634 16.9015 18.4261 17.1485 18.4261C17.3956 18.4261 17.4917 18.822 17.4917 18.9076C17.4917 18.9931 17.0819 19.1188 16.7911 19.0333C16.5003 18.9477 16.6783 18.6761 16.6783 18.6761L15.7249 18.189C15.7249 18.189 14.9839 18.4261 14.9839 18.6761C14.9839 18.9262 14.6489 19.0333 14.253 19.0333C13.857 19.0333 13.9095 18.8891 14.253 18.4261C14.3296 18.3229 14.3851 18.2657 14.4253 18.2392C14.4517 18.2397 14.479 18.2399 14.5074 18.2395C14.5406 18.2906 14.5175 18.4261 14.5175 18.4261C14.5175 18.4261 15.5786 18.0749 14.9839 18.189C14.8 18.2243 14.6423 18.2378 14.5074 18.2395C14.4929 18.2173 14.4677 18.2111 14.4253 18.2392C14.2739 18.2359 14.1548 18.2187 14.0624 18.2053C13.9998 18.1963 13.9494 18.189 13.9095 18.189C13.7514 18.189 13.125 17.8623 13.125 17.8623C13.125 17.8623 13.3538 17.6549 13.9095 17.6549C14.4652 17.6549 14.253 17.8623 14.253 17.8623H15.5786C15.5786 17.8623 14.9839 17.4925 14.7893 17.4925C14.6908 17.4925 14.5547 17.4194 14.4202 17.3471C14.2889 17.2766 14.1592 17.2069 14.0676 17.2069C13.8822 17.2069 13.9095 16.8342 14.253 16.8342C14.5965 16.8342 14.9839 17.0985 14.9839 17.2069C14.9839 17.3153 15.7249 17.6549 15.7249 17.6549L17.6708 17.2069C17.6708 17.2069 17.3848 16.6222 17.6708 16.6222C17.9568 16.6222 18.8618 16.1009 19.2289 15.4489C19.596 14.7969 19.5566 14.493 19.3604 14.493C19.1642 14.493 18.9974 14.7845 18.9974 14.9087C18.9974 15.0329 18.5245 15.6741 18.4141 15.8128C18.3038 15.9514 17.9124 15.6741 18.1886 15.3345C18.4334 15.0334 18.4214 14.5838 18.4155 14.3632C18.4148 14.3349 18.4141 14.3104 18.4141 14.2904C18.4141 14.1148 17.9124 14.466 17.9124 15.0916C17.9124 15.7172 16.8028 15.9537 16.492 15.9537C16.1813 15.9537 16.492 15.4489 17.0819 15.3345C17.5458 15.2445 17.4674 14.7088 17.4127 14.3351C17.3979 14.2336 17.3848 14.1441 17.3848 14.0787C17.3848 13.7727 16.6783 14.519 16.4032 14.9087C16.1281 15.2985 14.9839 16.2335 14.6489 16.3555C14.314 16.4776 13.6755 16.0901 13.5216 15.8128C13.4085 15.6091 13.7561 15.5713 14.2346 15.5194C14.4076 15.5006 14.5977 15.4799 14.7893 15.4489C15.511 15.3321 16.492 14.0787 16.6783 13.8364C16.8646 13.594 16.4032 13.4134 16.1508 13.8364C15.9001 14.2564 14.6664 14.652 14.2614 14.7818L14.253 14.7845C13.857 14.9115 13.5216 14.3369 13.5216 14.0787C13.5216 13.9237 13.7185 13.9549 14.0321 14.0045C14.2407 14.0376 14.501 14.0787 14.7893 14.0787C15.511 14.0787 16.4032 12.96 16.4032 12.6799C16.4032 12.3999 16.008 12.5221 15.7249 12.6799C15.6541 12.7194 15.5723 12.7752 15.4822 12.8368C15.2122 13.0211 14.8672 13.2566 14.5175 13.2566C14.0511 13.2566 13.6755 12.96 13.6755 12.96C13.6755 12.96 13.5216 12.5221 13.9095 12.5221H14.9839C15.5586 12.5221 16.492 11.4396 16.492 11.2383C16.492 11.1286 16.049 11.304 15.5888 11.4862C15.2051 11.6381 14.8096 11.7947 14.6489 11.7947C14.2956 11.7947 13.5216 11.5028 13.5216 11.2383C13.5216 11.131 13.5216 11.079 13.5475 11.0552C13.5854 11.0202 13.679 11.0455 13.9095 11.0455C14.0835 11.0455 14.2502 11.0843 14.434 11.1271C14.66 11.1797 14.9118 11.2383 15.2348 11.2383C15.6307 11.2383 15.9635 10.9666 16.1793 10.7903C16.2828 10.7058 16.3594 10.6432 16.4032 10.6432C16.5381 10.6432 16.2683 10.2332 16.008 10.2332C15.9003 10.2332 15.738 10.3035 15.5479 10.3858C15.2789 10.5024 14.9542 10.6432 14.6489 10.6432C14.1279 10.6432 13.5216 9.90457 13.5216 9.70714C13.5216 9.50972 13.811 9.58124 14.253 9.70714C14.695 9.83305 15.0151 9.92344 16.008 9.70714C17.001 9.49085 16.4032 9.17121 16.1508 9.17121H14.253C13.5215 9.17121 13.5216 8.23163 13.5216 8.0551L13.5216 8.05236C13.5216 7.91943 13.6751 7.99525 14.0501 8.18051C14.1527 8.23119 14.2719 8.29007 14.4091 8.3551C14.9059 8.59068 15.5751 8.54743 16.0514 8.51665C16.1871 8.50787 16.3072 8.50011 16.4032 8.50011C16.8358 8.50011 16.1508 8.05236 16.1508 8.05236C16.1508 8.05236 15.5075 8.05236 14.4091 7.63675C13.3106 7.22115 13.5216 6.08523 13.5216 6.08523C13.5216 6.08523 13.8494 5.67945 14.0676 6.08523C14.2859 6.49101 15.6723 7.51273 16.1508 7.51273C16.4488 7.51273 16.4409 7.42742 16.4344 7.35613C16.4304 7.31297 16.4269 7.27495 16.492 7.26413C16.6648 7.23542 18.0581 7.65362 18.0581 7.65362C18.6249 7.68985 18.7124 8.434 18.7124 8.87454C18.7124 9.31508 19.1305 9.70714 19.7746 9.70714C20.2569 9.70714 20.0625 9.06422 19.9002 8.52774C19.8458 8.34791 19.795 8.18004 19.7746 8.05236C19.6931 7.54374 17.9124 7.24985 17.9124 7.24985C17.2823 7.16119 17.3848 6.84098 17.3848 6.84098C17.6216 6.83326 17.9675 6.70654 17.9675 6.70654C18.3475 6.63059 16.4032 6.46171 16.4032 6.46171C15.9723 6.42652 16.1508 5.96284 16.1508 5.96284C16.1508 5.75301 16.3369 5.86474 16.6027 6.02426C16.8572 6.17702 17.1848 6.3736 17.4917 6.3736C18.1193 6.3736 17.3078 5.96284 17.0819 5.96284C17.0506 5.96284 17.0363 5.96284 17.0362 5.96208C17.036 5.9574 17.589 5.92359 18.0581 5.67945C18.3495 5.52782 18.6159 5.61957 18.9588 5.73767C19.2567 5.8403 19.6125 5.96284 20.0927 5.96284C20.6785 5.96284 20.668 6.28375 20.655 6.68497C20.6451 6.9911 20.6337 7.34398 20.8844 7.63675C21.295 8.11633 21.4861 8.20989 21.5625 8.22372C21.6389 8.20989 21.83 8.11633 22.2406 7.63675C22.4913 7.34398 22.4799 6.9911 22.47 6.68497C22.457 6.28375 22.4465 5.96284 23.0323 5.96284C23.5125 5.96284 23.8683 5.8403 24.1662 5.73767C24.5091 5.61957 24.7755 5.52782 25.0669 5.67945C25.536 5.92359 26.089 5.9574 26.0888 5.96208C26.0887 5.96284 26.0744 5.96284 26.0431 5.96284C25.8172 5.96284 25.0057 6.3736 25.6333 6.3736C25.9402 6.3736 26.2678 6.17702 26.5223 6.02426C26.7881 5.86474 26.9742 5.75301 26.9742 5.96284C26.9742 5.96284 27.1527 6.42652 26.7218 6.46171C26.7218 6.46171 24.7775 6.63059 25.1575 6.70654C25.1575 6.70654 25.5034 6.83326 25.7402 6.84098C25.7402 6.84098 25.8427 7.16119 25.2126 7.24985C25.2126 7.24985 23.4319 7.54374 23.3504 8.05236C23.33 8.18004 23.2792 8.34791 23.2248 8.52774C23.0625 9.06422 22.8681 9.70714 23.3504 9.70714C23.9945 9.70714 24.4126 9.31508 24.4126 8.87454C24.4126 8.434 24.5001 7.68985 25.0669 7.65362C25.0669 7.65362 26.4602 7.23542 26.633 7.26413C26.6981 7.27495 26.6946 7.31297 26.6906 7.35613C26.6841 7.42742 26.6762 7.51273 26.9742 7.51273C27.4527 7.51273 28.8391 6.49101 29.0574 6.08523C29.2756 5.67945 29.6034 6.08523 29.6034 6.08523C29.6034 6.08523 29.8144 7.22115 28.7159 7.63675C27.6175 8.05236 26.9742 8.05236 26.9742 8.05236C26.9742 8.05236 26.2892 8.50011 26.7218 8.50011C26.8178 8.50011 26.9379 8.50787 27.0736 8.51665C27.5499 8.54743 28.2191 8.59068 28.7159 8.3551C28.8531 8.29007 28.9723 8.23119 29.0749 8.18051C29.4499 7.99525 29.6034 7.91943 29.6034 8.05236V8.0551C29.6034 8.23163 29.6035 9.17121 28.872 9.17121H26.9742C26.7218 9.17121 26.124 9.49085 27.117 9.70714C28.1099 9.92344 28.43 9.83305 28.872 9.70714C29.314 9.58124 29.6034 9.50972 29.6034 9.70714C29.6034 9.90457 28.9971 10.6432 28.4761 10.6432C28.1708 10.6432 27.8461 10.5024 27.5771 10.3858C27.387 10.3035 27.2247 10.2332 27.117 10.2332C26.8567 10.2332 26.5869 10.6432 26.7218 10.6432C26.7656 10.6432 26.8422 10.7058 26.9457 10.7903C27.1615 10.9666 27.4943 11.2383 27.8902 11.2383C28.2132 11.2383 28.465 11.1797 28.691 11.1271C28.8748 11.0843 29.0415 11.0455 29.2155 11.0455C29.446 11.0455 29.5396 11.0202 29.5775 11.0552C29.6034 11.079 29.6034 11.131 29.6034 11.2383C29.6034 11.5028 28.8294 11.7947 28.4761 11.7947C28.3154 11.7947 27.9199 11.6381 27.5362 11.4862C27.076 11.304 26.633 11.1286 26.633 11.2383C26.633 11.4396 27.5664 12.5221 28.1411 12.5221H29.2155C29.6034 12.5221 29.4495 12.96 29.4495 12.96C29.4495 12.96 29.0739 13.2566 28.6075 13.2566C28.2578 13.2566 27.9128 13.0211 27.6428 12.8368C27.5527 12.7752 27.4709 12.7194 27.4001 12.6799C27.117 12.5221 26.7218 12.3999 26.7218 12.6799C26.7218 12.96 27.614 14.0787 28.3357 14.0787C28.624 14.0787 28.8843 14.0376 29.0929 14.0045C29.4065 13.9549 29.6034 13.9237 29.6034 14.0787C29.6034 14.3369 29.268 14.9115 28.872 14.7845L28.8636 14.7818C28.4586 14.652 27.2249 14.2564 26.9742 13.8364C26.7218 13.4134 26.2604 13.594 26.4467 13.8364C26.633 14.0787 27.614 15.3321 28.3357 15.4489C28.5273 15.4799 28.7174 15.5006 28.8904 15.5194C29.3689 15.5713 29.7165 15.6091 29.6034 15.8128C29.4495 16.0901 28.811 16.4776 28.4761 16.3555C28.1411 16.2335 26.9969 15.2985 26.7218 14.9087C26.4467 14.519 25.7402 13.7727 25.7402 14.0787C25.7402 14.1441 25.7271 14.2336 25.7123 14.3351C25.6576 14.7088 25.5792 15.2445 26.0431 15.3345C26.633 15.4489 26.9437 15.9537 26.633 15.9537C26.3222 15.9537 25.2126 15.7172 25.2126 15.0916C25.2126 14.466 24.7109 14.1148 24.7109 14.2904C24.7109 14.3104 24.7102 14.3349 24.7095 14.3632C24.7036 14.5838 24.6916 15.0334 24.9364 15.3345C25.2126 15.6741 24.8212 15.9514 24.7109 15.8128C24.6005 15.6741 24.1276 15.0329 24.1276 14.9087C24.1276 14.7845 23.9608 14.493 23.7646 14.493C23.5684 14.493 23.529 14.7969 23.8961 15.4489C24.2632 16.1009 25.1682 16.6222 25.4542 16.6222C25.7402 16.6222 25.4542 17.2069 25.4542 17.2069L27.4001 17.6549C27.4001 17.6549 28.1411 17.3153 28.1411 17.2069C28.1411 17.0985 28.5285 16.8342 28.872 16.8342C29.2155 16.8342 29.2428 17.2069 29.0574 17.2069C28.9658 17.2069 28.8361 17.2766 28.7048 17.3471C28.5703 17.4194 28.4342 17.4925 28.3357 17.4925C28.1411 17.4925 27.5464 17.8623 27.5464 17.8623H28.872C28.872 17.8623 28.6598 17.6549 29.2155 17.6549C29.7712 17.6549 30 17.8623 30 17.8623C30 17.8623 29.3736 18.189 29.2155 18.189C29.1756 18.189 29.1252 18.1963 29.0626 18.2053C28.9702 18.2187 28.8511 18.2359 28.6997 18.2392C28.6573 18.2111 28.6321 18.2173 28.6176 18.2395C28.4827 18.2378 28.325 18.2243 28.1411 18.189C27.5464 18.0749 28.6075 18.4261 28.6075 18.4261C28.6075 18.4261 28.5844 18.2906 28.6176 18.2395C28.646 18.2399 28.6733 18.2397 28.6997 18.2392C28.7399 18.2657 28.7954 18.3229 28.872 18.4261C29.2155 18.8891 29.268 19.0333 28.872 19.0333C28.4761 19.0333 28.1411 18.9262 28.1411 18.6761C28.1411 18.4261 27.4001 18.189 27.4001 18.189L26.4467 18.6761C26.4467 18.6761 26.6247 18.9477 26.3339 19.0333C26.0431 19.1188 25.6333 18.9931 25.6333 18.9076C25.6333 18.822 25.7294 18.4261 25.9765 18.4261C26.2235 18.4261 26.9742 18.0634 26.9742 18.0634L25.1575 17.5809C25.1575 17.5809 24.6486 18.0634 24.4813 18.0634C24.3956 18.0634 24.2271 17.7553 24.043 17.4189C23.8678 17.0985 23.6784 16.7524 23.5332 16.6222C23.4421 16.5407 23.3614 16.4324 23.2833 16.3277C23.1061 16.0902 22.9426 15.871 22.7035 16.0237C22.3591 16.2437 22.2223 16.9216 22.7035 17.4925C23.1847 18.0634 24.0173 18.5144 24.2493 18.5144C24.4813 18.5144 24.9364 18.5338 24.9364 18.6761C24.9364 18.8185 24.734 19.4014 24.2493 19.1545C24.1532 19.1056 24.0558 19.0547 23.9608 19.005C23.5766 18.8043 23.2319 18.6242 23.1728 18.6761C23.0992 18.741 23.4022 19.4751 23.8258 19.6503C24.0118 19.7273 24.1845 19.7216 24.3196 19.7172C24.4922 19.7116 24.6036 19.708 24.6036 19.8807C24.6036 20.1888 24.3043 20.5321 23.7646 20.2064C23.5261 20.0625 23.3293 19.873 23.1754 19.7248C22.9811 19.5377 22.8554 19.4166 22.801 19.5371C22.7035 19.7529 22.7449 20.5962 23.1728 20.5962C23.2713 20.5962 23.3628 20.5934 23.4453 20.5908C23.7211 20.5822 23.8961 20.5768 23.8961 20.6913C23.8961 20.8399 23.7974 21.4737 23.3504 21.2209C22.9035 20.968 22.5766 20.6527 22.4968 20.4296C22.4169 20.2064 21.9399 20.4287 22.0903 20.7425C22.2406 21.0563 22.606 21.6888 22.7035 21.6888C22.801 21.6888 21.5703 23.6001 21.5703 23.6001L21.5625 21.247Z" clip-rule="evenodd"/></g></g></g></g></g></g><defs><filter id="filter0_dd_91_29876" width="42" height="30" x="0" y="0" color-interpolation-filters="sRGB" filterUnits="userSpaceOnUse"><feFlood flood-opacity="0" result="BackgroundImageFix"/><feColorMatrix in="SourceAlpha" result="hardAlpha" values="0 0 0 0 0 0 0 0 0 0 0 0 0 0 0 0 0 0 127 0"/><feOffset dy="1"/><feGaussianBlur stdDeviation="1"/><feColorMatrix values="0 0 0 0 0.0627451 0 0 0 0 0.0941176 0 0 0 0 0.156863 0 0 0 0.06 0"/><feBlend in2="BackgroundImageFix" result="effect1_dropShadow_91_29876"/><feColorMatrix in="SourceAlpha" result="hardAlpha" values="0 0 0 0 0 0 0 0 0 0 0 0 0 0 0 0 0 0 127 0"/><feOffset dy="1"/><feGaussianBlur stdDeviation="1.5"/><feColorMatrix values="0 0 0 0 0.0627451 0 0 0 0 0.0941176 0 0 0 0 0.156863 0 0 0 0.1 0"/><feBlend in2="effect1_dropShadow_91_29876" result="effect2_dropShadow_91_29876"/><feBlend in="SourceGraphic" in2="effect2_dropShadow_91_29876" result="shape"/></filter><clipPath id="clip0_91_29876"><rect width="36" height="24" x="3" y="2" fill="white" rx="2"/></clipPath></defs></svg>

<svg xmlns="http://www.w3.org/2000/svg" fill="none" aria-hidden="true" viewBox="0 0 42 30"><g filter="url(#a)"><g clip-path="url(#b)"><mask id="c" width="36" height="24" x="3" y="2" maskUnits="userSpaceOnUse" style="mask-type:alpha"><path fill="#fff" d="M3 2h36v24H3z"/></mask><g fill-rule="evenodd" clip-rule="evenodd" mask="url(#c)"><path fill="#F50100" d="M3 2h36v24H3V2Z"/><path fill="#1A1A1A" d="m21.563 21.247-.008 2.353s-1.231-1.911-1.133-1.911c.097 0 .462-.633.613-.947.15-.313-.327-.536-.407-.312-.08.223-.407.538-.853.79-.447.254-.546-.38-.546-.529 0-.114.175-.109.45-.1.083.002.175.005.273.005.428 0 .47-.843.372-1.059-.054-.12-.18 0-.374.188a3.397 3.397 0 0 1-.59.481c-.54.326-.839-.017-.839-.325 0-.173.112-.17.284-.164.136.005.308.01.494-.067.424-.175.727-.909.653-.974-.059-.052-.404.128-.788.329l-.288.15c-.485.246-.687-.337-.687-.479 0-.142.455-.162.687-.162.232 0 1.064-.45 1.546-1.021.48-.571.344-1.25 0-1.47-.24-.152-.403.067-.58.305-.078.104-.16.213-.25.294-.145.13-.335.477-.51.797-.184.336-.353.644-.438.644-.168 0-.676-.482-.676-.482l-1.817.482s.75.363.997.363c.248 0 .344.396.344.482 0 .085-.41.21-.7.125-.292-.085-.114-.357-.114-.357l-.953-.487s-.741.237-.741.487-.335.357-.731.357c-.396 0-.344-.144 0-.607a.81.81 0 0 1 .172-.187h.082c.034.052.01.187.01.187s1.062-.351.467-.237a2.697 2.697 0 0 1-.477.05c-.014-.022-.04-.028-.082 0a2.812 2.812 0 0 1-.363-.034 1.175 1.175 0 0 0-.152-.016c-.159 0-.785-.327-.785-.327s.229-.207.784-.207c.556 0 .344.207.344.207h1.326s-.595-.37-.79-.37c-.098 0-.234-.073-.369-.145-.131-.07-.26-.14-.352-.14-.186 0-.159-.373.185-.373s.73.265.73.373c0 .108.742.448.742.448l1.946-.448s-.286-.585 0-.585 1.19-.521 1.558-1.173c.367-.652.328-.956.131-.956-.196 0-.363.291-.363.416 0 .124-.473.765-.583.904-.11.138-.502-.139-.225-.479.244-.3.232-.75.227-.97l-.002-.074c0-.175-.502.176-.502.802 0 .625-1.11.862-1.42.862-.31 0 0-.505.59-.62.464-.09.385-.625.33-.999-.014-.101-.027-.19-.027-.256 0-.306-.707.44-.982.83-.275.39-1.42 1.324-1.754 1.446-.335.123-.973-.265-1.127-.542-.114-.204.234-.242.713-.294.173-.018.363-.04.554-.07.722-.117 1.703-1.37 1.89-1.613.186-.242-.276-.423-.528 0-.25.42-1.485.816-1.89.946l-.008.002c-.396.127-.731-.447-.731-.705 0-.155.197-.124.51-.075.209.034.469.075.757.075.722 0 1.614-1.119 1.614-1.4 0-.28-.395-.157-.678 0-.07.04-.153.096-.243.158-.27.184-.615.42-.964.42-.467 0-.843-.297-.843-.297s-.153-.438.234-.438h1.075c.575 0 1.508-1.082 1.508-1.284 0-.11-.443.066-.903.248-.384.152-.78.309-.94.309-.353 0-1.127-.292-1.127-.557 0-.107 0-.159.025-.183.038-.035.132-.01.362-.01.175 0 .341.04.525.082a3.3 3.3 0 0 0 .8.111c.397 0 .73-.271.945-.448.104-.084.18-.147.224-.147.135 0-.135-.41-.395-.41-.108 0-.27.07-.46.153-.27.116-.594.257-.9.257-.52 0-1.126-.738-1.126-.936 0-.197.289-.126.731 0s.762.216 1.755 0c.993-.216.395-.536.143-.536h-1.898c-.732 0-.731-.94-.731-1.116v-.003c0-.133.153-.057.528.129.103.05.222.11.36.174.496.236 1.165.192 1.641.162a5.1 5.1 0 0 1 .352-.017c.433 0-.252-.448-.252-.448s-.643 0-1.742-.415c-1.098-.416-.887-1.552-.887-1.552s.327-.406.546 0c.218.406 1.604 1.428 2.083 1.428.298 0 .29-.086.283-.157-.004-.043-.007-.081.058-.092.173-.029 1.566.39 1.566.39.567.036.654.78.654 1.22 0 .441.419.833 1.063.833.482 0 .288-.643.125-1.18-.054-.18-.105-.347-.125-.475-.082-.508-1.863-.802-1.863-.802-.63-.089-.527-.409-.527-.409.237-.008.582-.134.582-.134.38-.076-1.564-.245-1.564-.245-.43-.035-.252-.5-.252-.5 0-.209.186-.097.452.062.254.153.582.35.889.35.627 0-.184-.411-.41-.411h-.046c0-.006.553-.04 1.022-.284.291-.151.558-.06.9.059.299.102.655.225 1.135.225.585 0 .575.32.562.722-.01.306-.021.659.23.952.41.48.601.573.677.587.077-.014.268-.108.679-.587.25-.293.239-.646.229-.952-.013-.401-.023-.722.562-.722.48 0 .836-.123 1.134-.225.343-.118.61-.21.9-.059.47.245 1.023.278 1.023.283h-.046c-.226 0-1.037.412-.41.412.307 0 .635-.197.89-.35.265-.16.451-.271.451-.061 0 0 .179.464-.252.499 0 0-1.945.169-1.565.245 0 0 .346.126.583.134 0 0 .103.32-.527.409 0 0-1.781.294-1.863.802-.02.128-.07.296-.125.476-.163.536-.357 1.18.125 1.18.644 0 1.063-.393 1.063-.833 0-.441.087-1.185.654-1.221 0 0 1.393-.419 1.566-.39.065.01.062.049.058.092-.007.071-.015.157.283.157.479 0 1.865-1.022 2.083-1.428.219-.406.546 0 .546 0s.211 1.136-.887 1.552c-1.099.415-1.742.415-1.742.415s-.685.448-.252.448c.096 0 .216.008.352.017.476.03 1.145.074 1.642-.162.137-.065.256-.124.359-.174.375-.186.528-.262.528-.129v.003c0 .177 0 1.116-.731 1.116h-1.898c-.252 0-.85.32.143.536.993.216 1.313.126 1.755 0 .442-.126.731-.197.731 0 0 .198-.606.936-1.127.936-.305 0-.63-.14-.899-.257-.19-.082-.352-.153-.46-.153-.26 0-.53.41-.395.41.044 0 .12.063.224.147.215.177.548.448.944.448.323 0 .575-.058.801-.11a2.31 2.31 0 0 1 .524-.082c.231 0 .325-.026.363.01.025.023.025.075.025.182 0 .265-.774.557-1.127.557-.16 0-.556-.157-.94-.309-.46-.182-.903-.357-.903-.248 0 .202.933 1.284 1.508 1.284h1.075c.387 0 .233.438.233.438s-.375.297-.841.297c-.35 0-.695-.236-.965-.42a3.428 3.428 0 0 0-.243-.157c-.283-.158-.678-.28-.678 0s.892 1.399 1.614 1.399c.288 0 .548-.041.757-.075.314-.05.51-.08.51.075 0 .258-.335.832-.731.705l-.008-.002c-.405-.13-1.64-.526-1.89-.946-.252-.423-.714-.242-.527 0 .186.243 1.167 1.496 1.889 1.613.191.03.381.052.554.07.479.052.826.09.713.294-.154.277-.792.665-1.127.542-.335-.122-1.48-1.056-1.754-1.446-.275-.39-.982-1.136-.982-.83 0 .065-.013.155-.028.256-.054.374-.133.91.331 1 .59.114.9.619.59.619-.31 0-1.42-.237-1.42-.862 0-.626-.502-.977-.502-.802 0 .02 0 .045-.002.073-.005.22-.017.67.227.972.277.34-.115.616-.225.478-.11-.139-.583-.78-.583-.904 0-.125-.167-.416-.363-.416-.197 0-.236.304.131.956.367.652 1.272 1.173 1.558 1.173.286 0 0 .585 0 .585l1.946.448s.741-.34.741-.448c0-.108.388-.373.731-.373.343 0 .37.373.185.373-.091 0-.22.07-.352.14-.135.072-.27.145-.37.145-.194 0-.789.37-.789.37h1.326s-.212-.207.343-.207c.556 0 .785.207.785.207s-.626.327-.785.327c-.04 0-.09.007-.152.016-.093.014-.212.03-.363.034-.043-.028-.068-.022-.082 0a2.697 2.697 0 0 1-.477-.05c-.595-.114.467.237.467.237s-.024-.135.01-.186h.082a.81.81 0 0 1 .172.186c.343.463.396.607 0 .607s-.73-.107-.73-.357-.742-.487-.742-.487l-.953.487s.178.272-.113.357c-.29.086-.7-.04-.7-.125 0-.086.095-.482.343-.482.247 0 .997-.363.997-.363l-1.817-.482s-.508.482-.676.482c-.085 0-.254-.308-.438-.644-.175-.32-.365-.667-.51-.797a2.069 2.069 0 0 1-.25-.294c-.177-.238-.34-.457-.58-.304-.344.22-.48.898 0 1.468.482.571 1.314 1.022 1.546 1.022.232 0 .687.02.687.162 0 .143-.202.725-.687.479l-.288-.15c-.384-.2-.73-.38-.788-.329-.074.065.23.8.653.974.186.077.358.072.494.067.172-.005.284-.009.284.164 0 .308-.3.651-.84.325a3.392 3.392 0 0 1-.589-.481c-.194-.187-.32-.308-.374-.188-.098.216-.056 1.06.372 1.06.098 0 .19-.004.272-.006.276-.009.451-.014.451.1 0 .149-.099.783-.546.53-.447-.253-.773-.568-.853-.791-.08-.224-.557-.001-.407.313.15.313.516.946.613.946.098 0-1.133 1.911-1.133 1.911l-.008-2.353Z"/></g></g></g><defs><clipPath id="b"><rect width="36" height="24" x="3" y="2" fill="#fff" rx="2"/></clipPath><filter id="a" width="42" height="30" x="0" y="0" color-interpolation-filters="sRGB" filterUnits="userSpaceOnUse"><feFlood flood-opacity="0" result="BackgroundImageFix"/><feColorMatrix in="SourceAlpha" result="hardAlpha" values="0 0 0 0 0 0 0 0 0 0 0 0 0 0 0 0 0 0 127 0"/><feOffset dy="1"/><feGaussianBlur stdDeviation="1"/><feColorMatrix values="0 0 0 0 0.0627451 0 0 0 0 0.0941176 0 0 0 0 0.156863 0 0 0 0.06 0"/><feBlend in2="BackgroundImageFix" result="effect1_dropShadow_91_29876"/><feColorMatrix in="SourceAlpha" result="hardAlpha" values="0 0 0 0 0 0 0 0 0 0 0 0 0 0 0 0 0 0 127 0"/><feOffset dy="1"/><feGaussianBlur stdDeviation="1.5"/><feColorMatrix values="0 0 0 0 0.0627451 0 0 0 0 0.0941176 0 0 0 0 0.156863 0 0 0 0.1 0"/><feBlend in2="effect1_dropShadow_91_29876" result="effect2_dropShadow_91_29876"/><feBlend in="SourceGraphic" in2="effect2_dropShadow_91_29876" result="shape"/></filter></defs></svg>
